static/cards/FrenchDeck/cyberwave/card_clubs_05.svg

<svg xmlns="http://www.w3.org/2000/svg" width="822" height="1122" fill="none" viewBox="0 0 822 1122"><rect width="822" height="1122" fill="#1a0033" rx="20"/><g fill="#fff066" clip-path="url(#a)"><path d="M118.084 160.92q-8.32 0-16-1.664t-11.52-4.352q-.768-.512-.896-.896t.256-1.152l1.664-2.816q.384-.768.896-.768.256 0 .896.384 3.84 2.432 10.368 3.968 6.656 1.408 14.336 1.408 12.928 0 20.352-5.888 7.424-5.887 7.424-17.28 0-12.928-6.528-18.304t-19.712-5.376q-12.16 0-20.864 4.224a4.8 4.8 0 0 1-2.176.512q-1.792 0-3.072-1.28-1.153-1.28-1.024-3.328l2.176-33.408q0-2.944 2.944-2.944h48.128q1.536 0 2.176.64.768.511.768 1.92v.896q0 2.816-2.944 2.816h-44.416l-1.792 27.52a45.7 45.7 0 0 1 9.472-2.56q4.992-.896 12.032-.896 14.592 0 23.04 7.296t8.448 22.272q0 13.696-9.472 21.376t-24.96 7.68M141.309 231.337v-.004c0-11.782-9.224-21.333-20.603-21.333s-20.603 9.551-20.603 21.333c-11.379 0-20.603 9.552-20.603 21.334S88.724 274 100.103 274c10.386 0 18.977-7.957 20.397-18.305C121.92 266.043 130.511 274 140.897 274c11.379 0 20.603-9.551 20.603-21.333 0-11.64-9.002-21.102-20.191-21.33"/><rect width="5" height="33" x="118.5" y="251" rx="2.5"/><path d="M695.916 957.08q8.32 0 16 1.664t11.52 4.352q.768.512.896.896t-.256 1.152l-1.664 2.816q-.384.768-.896.768-.256 0-.896-.384-3.84-2.432-10.368-3.968-6.656-1.408-14.336-1.408-12.929 0-20.352 5.888-7.424 5.887-7.424 17.28c0 8.619 2.176 14.724 6.528 18.304s10.923 5.38 19.712 5.38q12.16 0 20.864-4.23a4.8 4.8 0 0 1 2.176-.51c1.195 0 2.219.43 3.072 1.28q1.152 1.275 1.024 3.33l-2.176 33.41q0 2.94-2.944 2.94h-48.128c-1.024 0-1.749-.21-2.176-.64q-.768-.51-.768-1.92v-.9c0-1.87.981-2.81 2.944-2.81h44.416l1.792-27.52a46 46 0 0 1-9.472 2.56c-3.328.6-7.339.89-12.032.89q-14.592 0-23.04-7.29c-5.632-4.87-8.448-12.29-8.448-22.274q0-13.696 9.472-21.376t24.96-7.68M672.691 886.663v.004c0 11.782 9.224 21.333 20.603 21.333s20.603-9.551 20.603-21.333c11.379 0 20.603-9.552 20.603-21.334S725.276 844 713.897 844c-10.386 0-18.977 7.957-20.397 18.305C692.08 851.957 683.489 844 673.103 844c-11.379 0-20.603 9.551-20.603 21.333 0 11.64 9.002 21.102 20.191 21.33"/><rect width="5" height="33" x="695.5" y="867" rx="2.5" transform="rotate(-180 695.5 867)"/></g><path stroke="#fff066" stroke-width="8" d="M491.779 601.935c13.001 0 23.889 11.163 23.889 25.377v3.923l3.918.081c12.786.265 23.414 11.333 23.414 25.372 0 14.214-10.889 25.377-23.89 25.377-11.873 0-21.966-9.289-23.646-21.741h-7.928c-1.68 12.452-11.773 21.741-23.646 21.741-13.001 0-23.89-11.163-23.89-25.377s10.889-25.376 23.89-25.376h4v-4c0-14.214 10.889-25.377 23.889-25.377Z"/><path fill="#fff066" d="M488.307 664.026a3.041 3.041 0 1 1 6.082 0v30.933a3.041 3.041 0 1 1-6.082 0z"/><path stroke="#fff066" stroke-width="8" d="M323.779 601.935c13.001 0 23.889 11.163 23.889 25.377v3.923l3.918.081c12.786.265 23.414 11.333 23.414 25.372 0 14.214-10.889 25.377-23.89 25.377-11.873 0-21.966-9.289-23.646-21.741h-7.928c-1.68 12.452-11.773 21.741-23.646 21.741-13.001 0-23.89-11.163-23.89-25.377s10.889-25.376 23.89-25.376h4v-4c0-14.214 10.889-25.377 23.889-25.377Z"/><path fill="#fff066" d="M320.307 664.026a3.041 3.041 0 1 1 6.082 0v30.933a3.041 3.041 0 1 1-6.082 0z"/><path stroke="#fff066" stroke-width="8" d="M579.779 439.935c13.001 0 23.889 11.163 23.889 25.377v3.923l3.918.081c12.786.265 23.414 11.333 23.414 25.372 0 14.214-10.889 25.377-23.89 25.377-11.873 0-21.966-9.289-23.646-21.741h-7.928c-1.68 12.452-11.773 21.741-23.646 21.741-13.001 0-23.89-11.163-23.89-25.377s10.889-25.376 23.89-25.376h4v-4c0-14.214 10.889-25.377 23.889-25.377Z"/><path fill="#fff066" d="M576.307 502.026a3.041 3.041 0 1 1 6.082 0v30.933a3.041 3.041 0 1 1-6.082 0z"/><path stroke="#fff066" stroke-width="8" d="M243.779 439.935c13.001 0 23.889 11.163 23.889 25.377v3.923l3.918.081c12.786.265 23.414 11.333 23.414 25.372 0 14.214-10.889 25.377-23.89 25.377-11.873 0-21.966-9.289-23.646-21.741h-7.928c-1.68 12.452-11.773 21.741-23.646 21.741-13.001 0-23.89-11.163-23.89-25.377s10.889-25.376 23.89-25.376h4v-4c0-14.214 10.889-25.377 23.889-25.377Z"/><path fill="#fff066" d="M240.307 502.026a3.041 3.041 0 1 1 6.082 0v30.933a3.041 3.041 0 1 1-6.082 0z"/><path stroke="#fff066" stroke-width="8" d="M411.779 439.935c13.001 0 23.889 11.163 23.889 25.377v3.923l3.918.081c12.786.265 23.414 11.333 23.414 25.372 0 14.214-10.889 25.377-23.89 25.377-11.873 0-21.966-9.289-23.646-21.741h-7.928c-1.68 12.452-11.773 21.741-23.646 21.741-13.001 0-23.89-11.163-23.89-25.377s10.889-25.376 23.89-25.376h4v-4c0-14.214 10.889-25.377 23.889-25.377Z"/><path fill="#fff066" d="M408.307 502.026a3.041 3.041 0 1 1 6.082 0v30.933a3.041 3.041 0 1 1-6.082 0z"/><defs><clipPath id="a"><path fill="#fff" d="M46 48h722v1022H46z"/></clipPath></defs></svg>

<svg width="822" height="1122" viewBox="0 0 822 1122" fill="none" xmlns="http://www.w3.org/2000/svg">
<rect width="822" height="1122" rx="20" fill="#1A0033"/>
<g clip-path="url(#clip0_31_1212)">
<path d="M118.084 160.92C112.537 160.92 107.204 160.365 102.084 159.256C96.964 158.147 93.124 156.696 90.564 154.904C90.052 154.563 89.7533 154.264 89.668 154.008C89.5827 153.752 89.668 153.368 89.924 152.856L91.588 150.04C91.844 149.528 92.1427 149.272 92.484 149.272C92.6547 149.272 92.9533 149.4 93.38 149.656C95.94 151.277 99.396 152.6 103.748 153.624C108.185 154.563 112.964 155.032 118.084 155.032C126.703 155.032 133.487 153.069 138.436 149.144C143.385 145.219 145.86 139.459 145.86 131.864C145.86 123.245 143.684 117.144 139.332 113.56C134.98 109.976 128.409 108.184 119.62 108.184C111.513 108.184 104.559 109.592 98.756 112.408C98.0733 112.749 97.348 112.92 96.58 112.92C95.3853 112.92 94.3613 112.493 93.508 111.64C92.74 110.787 92.3987 109.677 92.484 108.312L94.66 74.904C94.66 72.9413 95.6413 71.96 97.604 71.96H145.732C146.756 71.96 147.481 72.1733 147.908 72.6C148.42 72.9413 148.676 73.5813 148.676 74.52V75.416C148.676 77.2933 147.695 78.232 145.732 78.232H101.316L99.524 105.752C102.596 104.557 105.753 103.704 108.996 103.192C112.324 102.595 116.335 102.296 121.028 102.296C130.756 102.296 138.436 104.728 144.068 109.592C149.7 114.456 152.516 121.88 152.516 131.864C152.516 140.995 149.359 148.12 143.044 153.24C136.729 158.36 128.409 160.92 118.084 160.92Z" fill="#FFF066"/>
<path d="M141.309 231.337C141.309 231.336 141.309 231.335 141.309 231.333C141.309 219.551 132.085 210 120.706 210C109.327 210 100.103 219.551 100.103 231.333C88.7243 231.333 79.5 240.885 79.5 252.667C79.5 264.449 88.7243 274 100.103 274C110.489 274 119.08 266.043 120.5 255.695C121.92 266.043 130.511 274 140.897 274C152.276 274 161.5 264.449 161.5 252.667C161.5 241.027 152.498 231.565 141.309 231.337Z" fill="#FFF066"/>
<rect x="118.5" y="251" width="5" height="33" rx="2.5" fill="#FFF066"/>
<path d="M695.916 957.08C701.463 957.08 706.796 957.635 711.916 958.744C717.036 959.853 720.876 961.304 723.436 963.096C723.948 963.437 724.247 963.736 724.332 963.992C724.417 964.248 724.332 964.632 724.076 965.144L722.412 967.96C722.156 968.472 721.857 968.728 721.516 968.728C721.345 968.728 721.047 968.6 720.62 968.344C718.06 966.723 714.604 965.4 710.252 964.376C705.815 963.437 701.036 962.968 695.916 962.968C687.297 962.968 680.513 964.931 675.564 968.856C670.615 972.781 668.14 978.541 668.14 986.136C668.14 994.755 670.316 1000.86 674.668 1004.44C679.02 1008.02 685.591 1009.82 694.38 1009.82C702.487 1009.82 709.441 1008.41 715.244 1005.59C715.927 1005.25 716.652 1005.08 717.42 1005.08C718.615 1005.08 719.639 1005.51 720.492 1006.36C721.26 1007.21 721.601 1008.32 721.516 1009.69L719.34 1043.1C719.34 1045.06 718.359 1046.04 716.396 1046.04H668.268C667.244 1046.04 666.519 1045.83 666.092 1045.4C665.58 1045.06 665.324 1044.42 665.324 1043.48V1042.58C665.324 1040.71 666.305 1039.77 668.268 1039.77H712.684L714.476 1012.25C711.404 1013.44 708.247 1014.3 705.004 1014.81C701.676 1015.41 697.665 1015.7 692.972 1015.7C683.244 1015.7 675.564 1013.27 669.932 1008.41C664.3 1003.54 661.484 996.12 661.484 986.136C661.484 977.005 664.641 969.88 670.956 964.76C677.271 959.64 685.591 957.08 695.916 957.08Z" fill="#FFF066"/>
<path d="M672.691 886.663C672.691 886.664 672.691 886.665 672.691 886.667C672.691 898.449 681.915 908 693.294 908C704.673 908 713.897 898.449 713.897 886.667C725.276 886.667 734.5 877.115 734.5 865.333C734.5 853.551 725.276 844 713.897 844C703.511 844 694.92 851.957 693.5 862.305C692.08 851.957 683.489 844 673.103 844C661.724 844 652.5 853.551 652.5 865.333C652.5 876.973 661.502 886.435 672.691 886.663Z" fill="#FFF066"/>
<rect x="695.5" y="867" width="5" height="33" rx="2.5" transform="rotate(-180 695.5 867)" fill="#FFF066"/>
</g>
<path d="M491.779 601.935C504.78 601.935 515.668 613.098 515.668 627.312V631.235L519.586 631.316C532.372 631.581 543 642.649 543 656.688C543 670.902 532.111 682.065 519.11 682.065C507.237 682.065 497.144 672.776 495.464 660.324H487.536C485.856 672.776 475.763 682.065 463.89 682.065C450.889 682.065 440 670.902 440 656.688C440 642.475 450.889 631.312 463.89 631.312H467.89V627.312C467.89 613.098 478.779 601.935 491.779 601.935Z" stroke="#FFF066" stroke-width="8"/>
<path d="M488.307 664.026C488.307 662.347 489.668 660.985 491.348 660.985C493.028 660.985 494.389 662.347 494.389 664.026V694.959C494.389 696.638 493.028 698 491.348 698C489.668 698 488.307 696.638 488.307 694.959V664.026Z" fill="#FFF066"/>
<path d="M323.779 601.935C336.78 601.935 347.668 613.098 347.668 627.312V631.235L351.586 631.316C364.372 631.581 375 642.649 375 656.688C375 670.902 364.111 682.065 351.11 682.065C339.237 682.065 329.144 672.776 327.464 660.324H319.536C317.856 672.776 307.763 682.065 295.89 682.065C282.889 682.065 272 670.902 272 656.688C272 642.475 282.889 631.312 295.89 631.312H299.89V627.312C299.89 613.098 310.779 601.935 323.779 601.935Z" stroke="#FFF066" stroke-width="8"/>
<path d="M320.307 664.026C320.307 662.347 321.668 660.985 323.348 660.985C325.028 660.985 326.389 662.347 326.389 664.026V694.959C326.389 696.638 325.028 698 323.348 698C321.668 698 320.307 696.638 320.307 694.959V664.026Z" fill="#FFF066"/>
<path d="M579.779 439.935C592.78 439.935 603.668 451.098 603.668 465.312V469.235L607.586 469.316C620.372 469.581 631 480.649 631 494.688C631 508.902 620.111 520.065 607.11 520.065C595.237 520.065 585.144 510.776 583.464 498.324H575.536C573.856 510.776 563.763 520.065 551.89 520.065C538.889 520.065 528 508.902 528 494.688C528 480.475 538.889 469.312 551.89 469.312H555.89V465.312C555.89 451.098 566.779 439.935 579.779 439.935Z" stroke="#FFF066" stroke-width="8"/>
<path d="M576.307 502.026C576.307 500.347 577.668 498.985 579.348 498.985C581.028 498.985 582.389 500.347 582.389 502.026V532.959C582.389 534.638 581.028 536 579.348 536C577.668 536 576.307 534.638 576.307 532.959V502.026Z" fill="#FFF066"/>
<path d="M243.779 439.935C256.78 439.935 267.668 451.098 267.668 465.312V469.235L271.586 469.316C284.372 469.581 295 480.649 295 494.688C295 508.902 284.111 520.065 271.11 520.065C259.237 520.065 249.144 510.776 247.464 498.324H239.536C237.856 510.776 227.763 520.065 215.89 520.065C202.889 520.065 192 508.902 192 494.688C192 480.475 202.889 469.312 215.89 469.312H219.89V465.312C219.89 451.098 230.779 439.935 243.779 439.935Z" stroke="#FFF066" stroke-width="8"/>
<path d="M240.307 502.026C240.307 500.347 241.668 498.985 243.348 498.985C245.028 498.985 246.389 500.347 246.389 502.026V532.959C246.389 534.638 245.028 536 243.348 536C241.668 536 240.307 534.638 240.307 532.959V502.026Z" fill="#FFF066"/>
<path d="M411.779 439.935C424.78 439.935 435.668 451.098 435.668 465.312V469.235L439.586 469.316C452.372 469.581 463 480.649 463 494.688C463 508.902 452.111 520.065 439.11 520.065C427.237 520.065 417.144 510.776 415.464 498.324H407.536C405.856 510.776 395.763 520.065 383.89 520.065C370.889 520.065 360 508.902 360 494.688C360 480.475 370.889 469.312 383.89 469.312H387.89V465.312C387.89 451.098 398.779 439.935 411.779 439.935Z" stroke="#FFF066" stroke-width="8"/>
<path d="M408.307 502.026C408.307 500.347 409.668 498.985 411.348 498.985C413.028 498.985 414.389 500.347 414.389 502.026V532.959C414.389 534.638 413.028 536 411.348 536C409.668 536 408.307 534.638 408.307 532.959V502.026Z" fill="#FFF066"/>
<defs>
<clipPath id="clip0_31_1212">
<rect width="722" height="1022" fill="white" transform="translate(46 48)"/>
</clipPath>
</defs>
</svg>
